icons/note.svg

<?xml version="1.0" encoding="UTF-8"?>
<svg width="50" height="50" version="1.1" viewBox="0 0 50 50" xmlns="http://www.w3.org/2000/svg">
<path d="m11.25 7.5c-3.75 0-3.75 3.75-3.75 3.75v27.5c0 3.75 3.75 3.75 3.75 3.75h17.5v-10c0-3.75 3.75-3.75 3.75-3.75h10v-17.5s0-3.75-3.75-3.75h-27.5zm21.25 25v10c1.25 0 2.5-1.25 2.5-1.25l6.25-6.25s1.25-1.25 1.25-2.5h-10z"/>
</svg>

<?xml version="1.0" encoding="UTF-8" standalone="no"?>
<svg
   xmlns:dc="http://purl.org/dc/elements/1.1/"
   xmlns:cc="http://creativecommons.org/ns#"
   xmlns:rdf="http://www.w3.org/1999/02/22-rdf-syntax-ns#"
   xmlns:svg="http://www.w3.org/2000/svg"
   xmlns="http://www.w3.org/2000/svg"
   id="svg4"
   viewBox="0 0 50 50"
   version="1.1"
   width="50"
   height="50">
  <metadata
     id="metadata10">
    <rdf:RDF>
      <cc:Work
         rdf:about="">
        <dc:format>image/svg+xml</dc:format>
        <dc:type
           rdf:resource="http://purl.org/dc/dcmitype/StillImage" />
        <dc:title></dc:title>
      </cc:Work>
    </rdf:RDF>
  </metadata>
  <defs
     id="defs8" />
  <path
     id="path3844"
     d="M 11.25 7.5 C 7.5 7.5 7.5 11.25 7.5 11.25 L 7.5 38.75 C 7.5 42.5 11.25 42.5 11.25 42.5 L 28.75 42.5 L 28.75 32.5 C 28.75 28.75 32.5 28.75 32.5 28.75 L 42.5 28.75 L 42.5 11.25 C 42.5 11.25 42.5 7.5 38.75 7.5 L 11.25 7.5 z M 32.5 32.5 L 32.5 42.5 C 33.75 42.5 35 41.25 35 41.25 L 41.25 35 C 41.25 35 42.5 33.75 42.5 32.5 L 32.5 32.5 z " />
</svg>
